X: 1
T:Kelso Fiddle & Accordion Club
M:4/4
L:1/8
C:Bob Liddle
Z:Johnny Adams <j.adams:salford.ac.uk> tradtunes 2002-1-13
K:G
GA \
| B2 AG D2 G>F |  EAGE D2 GA | B2 AB d2 cB | A2 A>B A2 GA \
| B2 AG D2 G>F |  EAGE D2 GA | BdcB AcBA | G2 G>A G2 ||
Bc \
| d2 Bd g2 fe | d2 BG c2 Bc | d2 Bd g2 fg | agfe dcBc \
| d2 Bd g2 fe | d2 BG E2 GA | BdcB AcBA | G2 G>A G2 |]
